X:0231
M:6/8
L:1/8
Q:3/8=120
K:D
d2e fgf | efd     ecA | d2e     fgf|e3 A3 |\
d2e fgf | efd     ecA | B/c/dB  AFA|B3 d3:|
dfd dfd | ecA     acA | dfd     dfd|e3 A3 |\
dfd afd |(c/d/e)c ecA |(B/c/d)B AFA|B3 d3:|

